src/main/resources/icons/AllIcons/javaee/persistenceEntity.svg

<!-- Copyright 2000-2021 JetBrains s.r.o. Use of this source code is governed by the Apache 2.0 license that can be found in the LICENSE file. -->
<svg xmlns="http://www.w3.org/2000/svg" width="16" height="16" viewBox="0 0 16 16">
  <g fill="none" fill-rule="evenodd">
    <path fill="#9AA7B0" d="M7,9 L16,9 L16,16 L7,16 L7,9 Z M8,10 L8,15 L15,15 L15,10 L8,10 Z"/>
    <path fill="#9AA7B0" fill-opacity=".6" d="M10,11 L10,10 L11,10 L11,11 L15,11 L15,12 L11,12 L11,13 L15,13 L15,14 L11,14 L11,15 L10,15 L10,14 L8,14 L8,13 L10,13 L10,12 L8,12 L8,11 L10,11 Z"/>
    <path fill="#9AA7B0" fill-opacity=".8" d="M15,8.5 L14.145624,8.5 C14.4563391,8.37961956 14.7421688,8.25013787 15,8.11272332 C15,8.25048779 15,8.37958151 15,8.50000449 Z M6,11.4562192 C3.10851105,11.2309244 1,10.5296701 1,9.6994857 C1,9.55837883 1,9.02945804 1,8.11272332 C2.17982543,8.74152691 3.94592363,9.20422124 6,9.38885257 L6,11.4562192 Z M6,14.9202169 C3.10851105,14.6833685 1,13.9461525 1,13.0733945 L1,11.4521728 C2.17982543,12.0809763 3.94592363,12.5436707 6,12.728302 L6,14.9202169 Z M1,4.7732739 C2.5483493,5.59848716 5.10642125,6.13761469 8,6.13761469 C10.8935787,6.13761469 13.4516507,5.59848716 15,4.7732739 C15,5.60752964 15,6.10512337 15,6.26605509 C15,7.33008993 11.8659932,8.1926606 8,8.1926606 C4.13400675,8.1926606 1,7.33008993 1,6.26605509 C1,6.12695248 1,5.62935875 1,4.7732739 Z M8,4.85321102 C4.13400675,4.85321102 1,3.99064035 1,2.92660551 C1,1.86257067 4.13400675,1 8,1 C11.8659932,1 15,1.86257067 15,2.92660551 C15,3.99064035 11.8659932,4.85321102 8,4.85321102 Z"/>
  </g>
</svg>

<svg xmlns="http://www.w3.org/2000/svg" width="16" height="16" viewBox="0 0 16 16"><rect id="frame" width="16" height="16" fill="none"/><g fill="#9AA7B0" fill-rule="evenodd"><path d="M7 9h9v7H7V9zm1 1v5h7v-5H8z"/><path fill-opacity=".6" d="M10 11v-1h1v1h4v1h-4v1h4v1h-4v1h-1v-1H8v-1h2v-1H8v-1h2z"/><path fill-opacity=".8" d="M15 8.5h-.854c.31-.12.596-.25.854-.387V8.5zm-9 2.956c-2.891-.225-5-.926-5-1.757V8.113c1.18.629 2.946 1.091 5 1.276v2.067zm0 3.464c-2.891-.237-5-.974-5-1.847v-1.62c1.18.628 2.946 1.09 5 1.275v2.192zM1 4.773c1.548.825 4.106 1.365 7 1.365s5.452-.54 7-1.365v1.493c0 1.064-3.134 1.927-7 1.927S1 7.33 1 6.266V4.773zm7 .08c-3.866 0-7-.862-7-1.926S4.134 1 8 1s7 .863 7 1.927-3.134 1.926-7 1.926z"/></g></svg>
